assets/built/icon-mask.svg

<?xml version="1.0" encoding="UTF-8"?>
<svg width="249px" height="250px" viewBox="0 0 249 250" version="1.1" xmlns="http://www.w3.org/2000/svg" xmlns:xlink="http://www.w3.org/1999/xlink">
    <!-- Generator: Sketch 42 (36781) - http://www.bohemiancoding.com/sketch -->
    <title>Touch Bar Icon</title>
    <desc>Created with Sketch.</desc>
    <defs></defs>
    <g id="Logo" stroke="none" stroke-width="1" fill="none" fill-rule="evenodd">
        <g id="Touch-Bar-Icon"></g>
        <path d="M221.706439,187.545455 L208.070076,149.875 L156.422348,149.875 L142.785985,187.545455 L130.42803,187.545455 L176.450758,64.5625 L188.041667,64.5625 L233.979167,187.545455 L221.706439,187.545455 Z M181.649621,79.8181818 L159.916667,139.818182 L204.575758,139.818182 L182.757576,79.8181818 L181.649621,79.8181818 Z M68.907197,190.102273 C35.4981061,190.102273 14.7026515,165.556818 14.7026515,126.096591 C14.7026515,86.6363636 35.4981061,62.0056818 68.8219697,62.0056818 C94.1344697,62.0056818 114.589015,78.7954545 117.912879,102.147727 L106.066288,102.147727 C102.486742,84.7613636 87.3162879,72.8295455 68.8219697,72.8295455 C43.0833333,72.8295455 26.6344697,93.5397727 26.6344697,126.096591 C26.6344697,158.653409 42.9981061,179.278409 68.907197,179.278409 C87.9128788,179.278409 102.657197,168.710227 106.066288,152.517045 L117.912879,152.517045 C114.418561,175.102273 94.9867424,190.102273 68.907197,190.102273 Z" id="Touch-Bar-Icon" fill="#000000"></path>
    </g>
</svg>

<svg width="249" height="250" xmlns="http://www.w3.org/2000/svg"><path d="M221.706 187.545l-13.636-37.67h-51.648l-13.636 37.67h-12.358l46.023-122.982h11.59l45.938 122.982h-12.273zM181.65 79.818l-21.733 60h44.659l-21.818-60h-1.108zM68.907 190.102c-33.409 0-54.204-24.545-54.204-64.005 0-39.46 20.795-64.091 54.119-64.091 25.312 0 45.767 16.79 49.09 40.142h-11.846c-3.58-17.387-18.75-29.318-37.244-29.318-25.739 0-42.188 20.71-42.188 53.267 0 32.556 16.364 53.181 42.273 53.181 19.006 0 33.75-10.568 37.16-26.761h11.846c-3.494 22.585-22.926 37.585-49.006 37.585z" fill-rule="evenodd"/></svg>
